src/calendar.svg

<svg viewBox="0 0 16 16" fill="none" xmlns="http://www.w3.org/2000/svg"><path d="M5.5 2V3.50175H7.5V2H8.5V3.50175H10.5V2H11.5V3.50175L14 3.50176V14H2V3.50176L4.5 3.50175V2H5.5ZM4.5 4.50095L3 4.501V13H13V4.501L11.5 4.50095V6H10.5V4.50095H8.5V6H7.5V4.50095H5.5V6H4.5V4.50095ZM6 10.25V11.25H3.75V10.25H6ZM9.125 10.25V11.25H6.875V10.25H9.125ZM12.2455 10.25V11.25H9.99546V10.25H12.2455ZM6 7.75V8.75H3.75V7.75H6ZM9.125 7.75V8.75H6.875V7.75H9.125ZM12.25 7.75V8.75H10V7.75H12.25Z" fill="#111111"/></svg>

<svg viewBox="0 0 16 16" fill="none" xmlns="http://www.w3.org/2000/svg"><path d="M5.5 2v1.502h2V2h1v1.502h2V2h1v1.502H14V14H2V3.502h2.5V2h1Zm-1 2.5L3 4.502V13h10V4.501h-1.5V6h-1V4.5h-2V6h-1V4.5h-2V6h-1V4.5ZM6 10.25v1H3.75v-1H6Zm3.125 0v1h-2.25v-1h2.25Zm3.12 0v1h-2.25v-1h2.25ZM6 7.75v1H3.75v-1H6Zm3.125 0v1h-2.25v-1h2.25Zm3.125 0v1H10v-1h2.25Z" fill="#111111"/></svg>
